X:1
T:Foundations of Stone
C:Howard Shore
Z:Merecraft of Laurelin
Q:1/4=55
M:4/4
L:1/8
K:C
D2 E2 F2 F2 |G2 A2 D2 E2 |F2 F2 G2 A2 |C2 D2 E2 E2 |F2 G2 A4 |A2 c2 c3/2B/ c/B/A/c/ |B2 E6 |B2 c2 c3/2B/ c/B/A/c/ |B4 G,2 ^F,2 |C, E3 ^F4 |D, G3 ^F4 |A, A3 B4 |A, B4 z A,A, |C, E3 ^F4 |C,G G,2 A4 |
BE, E,G, A, B,3 |cE, BC A2 C2 z |_AA, B,_E E4 |_B_G, B,_E E2 =G2 |_GG, B,D D4 |B,_G, B,D D4 |]
%End of file
